public/assets/snapchat_green.svg

<?xml version="1.0" encoding="UTF-8"?>
<svg width="71px" height="67px" viewBox="0 0 71 67" version="1.1" xmlns="http://www.w3.org/2000/svg" xmlns:xlink="http://www.w3.org/1999/xlink">
    <!-- Generator: Sketch 52.6 (67491) - http://www.bohemiancoding.com/sketch -->
    <title>Item816</title>
    <desc>Created with Sketch.</desc>
    <g id="PROD" stroke="none" stroke-width="1" fill="none" fill-rule="evenodd">
        <g id="1_Desktop-/-HP-_2" transform="translate(-1246.000000, -5252.000000)" fill="#5FEB98">
            <g id="RS" transform="translate(0.000000, 4743.000000)">
                <g id="Group-4" transform="translate(360.000000, 504.000000)">
                    <path d="M921.405584,71.2530584 C921.290493,71.2617588 921.170691,71.2666667 921.050889,71.2666667 C916.844585,71.2666667 914.144779,69.3690883 911.534264,67.5337513 C909.731626,66.2670631 908.030843,65.0715396 906.026516,64.7395861 C905.048358,64.5785173 904.074911,64.4968674 903.134219,64.4968674 C901.439493,64.4968674 900.102378,64.7569869 899.126464,64.946834 C898.533287,65.06217 898.021549,65.1614437 897.632529,65.1614437 C897.226234,65.1614437 896.786063,65.0739936 896.594694,64.423918 C896.428452,63.8606232 896.308202,63.3151754 896.192438,62.7875746 C895.894279,61.4294207 895.682719,60.5944059 895.110182,60.5069558 C888.439189,59.482317 886.529762,58.0851229 886.103949,57.0937241 C886.043599,56.9520638 886.009499,56.8099574 886.001198,56.6694126 C885.97966,56.288603 886.250897,55.9521877 886.629373,55.8908388 C896.884552,54.2114396 901.483466,43.7890363 901.674386,43.3464316 C902.318489,42.045388 902.441208,40.9473536 902.057348,40.0474205 C901.353568,38.398138 899.058262,37.6733282 897.538751,37.1941373 C897.167007,37.0772397 896.814556,36.9665885 896.536588,36.8572759 C893.504971,35.6655449 893.25258,34.4421356 893.371708,33.8186073 C893.574968,32.7562668 895.00272,32.015841 896.15744,32.015841 C896.474219,32.015841 896.75286,32.0716127 896.987304,32.1804792 C898.351116,32.8158311 899.58032,33.1377457 900.641038,33.1377457 C902.10648,33.1377457 902.746097,32.5253718 902.82417,32.4450604 C902.786928,31.7548291 902.740937,31.0340349 902.6936,30.2902627 C902.388037,25.4689057 902.009562,19.4783495 903.543655,16.0588714 C908.140773,5.80869126 917.890048,5.01249362 920.768435,5.01249362 C920.842021,5.01249362 922.030394,5.00000075 922.030394,5.00000075 C925.085791,4.9991084 934.856155,5.79686764 939.45619,16.0526249 C940.990507,19.4738877 940.61091,25.469798 940.304899,30.2873626 L940.292335,30.4968413 C940.249933,31.1676641 940.208878,31.8197475 940.174777,32.443945 C940.248139,32.518233 940.83638,33.0815277 942.16497,33.1321685 C943.176107,33.0937975 944.336211,32.7736676 945.609611,32.1804792 C945.982927,32.0071406 946.397522,31.9705543 946.679528,31.9705543 C947.110501,31.9705543 947.547531,32.0535427 947.910302,32.2041264 C948.962271,32.5760125 949.636886,33.2939066 949.651468,34.0439252 C949.664929,34.7504419 949.12268,35.8123362 946.462359,36.8572759 C946.186635,36.9650269 945.834184,37.0763473 945.460869,37.1941373 C943.940012,37.6739975 941.645379,38.398138 940.942048,40.0471974 C940.557739,40.9466843 940.680906,42.0438264 941.308184,43.3093991 C941.51593,43.7885901 946.110581,54.2080933 956.370248,55.8892772 C956.749172,55.9515185 957.019736,56.2874875 956.998871,56.6685202 C956.990346,56.811519 956.955348,56.9554101 956.893876,57.0952857 C956.470756,58.0795457 954.562899,59.4749551 947.889438,60.5002632 C947.344272,60.5836977 947.132936,61.2899913 946.807631,62.7712892 C946.689399,63.3104906 946.569373,63.8398761 946.404477,64.3969244 C946.262465,64.880131 945.959595,65.1063412 945.4501,65.1063412 C945.013518,65.1063412 944.510754,65.0434307 943.873605,64.9189481 C942.744012,64.6992074 941.477118,64.4968674 939.865401,64.4968674 C938.92426,64.4968674 937.950589,64.5785173 936.971758,64.7395861 C934.969675,65.0715396 933.269789,66.2648322 931.470516,67.5295126 C928.854841,69.3690883 926.155483,71.2666667 921.948058,71.2666667 C921.76499,71.2666667 921.585287,71.2615357 921.405584,71.2530584 Z" id="Item816"></path>
                </g>
            </g>
        </g>
    </g>
</svg>

<?xml version="1.0" encoding="UTF-8"?>
<svg version="1.1" viewBox="0 0 71 67" xmlns="http://www.w3.org/2000/svg">
<title>Item816</title>
<desc>Created with Sketch.</desc>
<g fill="none" fill-rule="evenodd">
<g transform="translate(-1246 -5252)" fill="#5FEB98">
<g transform="translate(0 4743)">
<g transform="translate(360 504)">
<path d="m921.41 71.253c-0.11509 0.0087004-0.23489 0.013608-0.3547 0.013608-4.2063 0-6.9061-1.8976-9.5166-3.7329-1.8026-1.2667-3.5034-2.4622-5.5077-2.7942-0.97816-0.16107-1.9516-0.24272-2.8923-0.24272-1.6947 0-3.0318 0.26012-4.0078 0.44997-0.59318 0.11534-1.1049 0.21461-1.4939 0.21461-0.4063 0-0.84647-0.08745-1.0378-0.73753-0.16624-0.56329-0.28649-1.1087-0.40226-1.6363-0.29816-1.3582-0.50972-2.1932-1.0823-2.2806-6.671-1.0246-8.5804-2.4218-9.0062-3.4132-0.06035-0.14166-0.09445-0.28377-0.10275-0.42431-0.021538-0.38081 0.2497-0.71722 0.62818-0.77857 10.255-1.6794 14.854-12.102 15.045-12.544 0.6441-1.301 0.76682-2.3991 0.38296-3.299-0.70378-1.6493-2.9991-2.3741-4.5186-2.8533-0.37174-0.1169-0.7242-0.22755-1.0022-0.33686-3.0316-1.1917-3.284-2.4151-3.1649-3.0387 0.20326-1.0623 1.631-1.8028 2.7857-1.8028 0.31678 0 0.59542 0.055772 0.82986 0.16464 1.3638 0.63535 2.593 0.95727 3.6537 0.95727 1.4654 0 2.1051-0.61237 2.1831-0.69269-0.037242-0.69023-0.083233-1.411-0.13057-2.1548-0.30556-4.8214-0.68404-10.812 0.85006-14.231 4.5971-10.25 14.346-11.046 17.225-11.046 0.073586 0 1.262-0.012493 1.262-0.012493 3.0554-8.9235e-4 12.826 0.79687 17.426 11.053 1.5343 3.4213 1.1547 9.4172 0.84871 14.235l-0.012564 0.20948c-0.042402 0.67082-0.083457 1.3229-0.11756 1.9471 0.073362 0.074288 0.6616 0.63758 1.9902 0.68822 1.0111-0.038371 2.1712-0.3585 3.4446-0.95169 0.37332-0.17334 0.78791-0.20992 1.0699-0.20992 0.43097 0 0.868 0.082988 1.2308 0.23357 1.052 0.37189 1.7266 1.0898 1.7412 1.8398 0.013461 0.70652-0.52879 1.7684-3.1891 2.8134-0.27572 0.10775-0.62818 0.21907-1.0015 0.33686-1.5209 0.47986-3.8155 1.204-4.5188 2.8531-0.38431 0.89949-0.26114 1.9966 0.36614 3.2622 0.20775 0.47919 4.8024 10.899 15.062 12.58 0.37892 0.062241 0.64949 0.39821 0.62862 0.77924-0.008525 0.143-0.043523 0.28689-0.105 0.42677-0.42312 0.98426-2.331 2.3797-9.0044 3.405-0.54517 0.083434-0.7565 0.78973-1.0818 2.271-0.11823 0.5392-0.23826 1.0686-0.40315 1.6256-0.14201 0.48321-0.44488 0.70942-0.95438 0.70942-0.43658 0-0.93935-0.06291-1.5765-0.18739-1.1296-0.21974-2.3965-0.42208-4.0082-0.42208-0.94114 0-1.9148 0.08165-2.8936 0.24272-2.0021 0.33195-3.702 1.5252-5.5012 2.7899-2.6157 1.8396-5.315 3.7372-9.5225 3.7372-0.18307 0-0.36277-0.005131-0.54247-0.013608z"/>
</g>
</g>
</g>
</g>
</svg>
